speaky-school/img/logo2.svg

<svg width="291" height="60" viewBox="0 0 291 60" fill="none" xmlns="http://www.w3.org/2000/svg">
<path d="M7.13864 28.1859C3.91909 27.4341 3.47239 26.4119 3.47239 25.4319C3.47239 23.7931 4.50063 22.999 6.62453 22.999C8.18373 22.999 9.55752 23.3538 10.9566 24.1141L11.2937 24.2999L11.5044 23.9789C11.8753 23.4214 12.0944 22.7286 12.0944 22.1119C12.0944 21.301 11.6646 20.8279 10.7037 20.566C9.36367 20.169 8.19216 20 6.64981 20C1.81205 20 0.0927102 22.9567 0.0927102 25.7192C0.0927102 28.5238 1.96376 30.3739 5.64686 31.2187C8.99283 32.0128 9.67551 33.0687 9.67551 34.4119C9.67551 36.5915 7.6949 37.0561 6.03455 37.0561C4.38263 37.0561 2.82343 36.5999 1.14623 35.6284L0.809102 35.4341L0.589968 35.7551C0.219129 36.2958 0 36.997 0 37.6306C0 38.45 0.387696 38.9231 1.33165 39.2694C2.6633 39.7763 4.26464 40.0466 5.96713 40.0466C10.2318 40.0466 13.0973 37.6643 13.0973 34.1247C13.0889 30.999 11.2516 29.1659 7.13864 28.1859Z" fill="#236967"/>
<path d="M22.5538 20.2529H16.1484V39.7927H19.4523V33.5329H22.5538C27.0713 33.5329 29.6588 31.1168 29.6588 26.9098C29.6588 22.6774 27.0713 20.2529 22.5538 20.2529ZM19.4607 23.1252H22.5623C25.0823 23.1252 26.3128 24.3586 26.3128 26.9098C26.3128 29.4188 25.0486 30.6944 22.5623 30.6944H19.4607V23.1252Z" fill="#236967"/>
<path d="M35.6168 31.0999H42.5616V28.2276H35.6168V23.1252H44.3147V20.2529H32.313V39.7927H44.4748V36.9204H35.6168V31.0999Z" fill="#236967"/>
<path d="M55.4323 20.4048L55.3059 20.2612H52.6932L52.5667 20.4048C49.1702 24.3331 46.7597 31.5897 46.2709 39.3448L46.2456 39.7925H49.659L49.6759 39.387C49.7433 37.9087 49.8866 36.4641 50.0804 35.0871H57.9017C58.0872 36.3881 58.2304 37.7989 58.34 39.387L58.3653 39.7841H61.745L61.7197 39.3364C61.3067 31.8009 58.8373 24.3669 55.4323 20.4048ZM57.3961 32.2233H50.6114C51.3615 28.7597 52.4993 25.8114 53.9995 23.446C55.5334 25.8537 56.6712 28.802 57.3961 32.2233Z" fill="#236967"/>
<path d="M72.6841 29.2836C75.634 27.0872 77.7157 24.0122 78.4405 20.7682L78.5585 20.2529H75.0272L74.9513 20.5824C74.0832 24.2994 71.5632 27.2815 68.1666 28.6585V20.2529H64.8628V39.7927H68.1666V31.6828C68.765 31.4801 69.3381 31.252 69.8691 30.9985C72.7347 32.8317 74.5299 35.6702 75.2041 39.4463L75.2631 39.7927H78.803L78.7271 39.3112C78.1371 35.3069 75.8447 31.5307 72.6841 29.2836Z" fill="#236967"/>
<path d="M91.7061 20.2529L91.6724 20.6331C91.2762 24.857 89.9109 28.1347 87.61 30.3987C85.2417 28.1432 83.8426 24.857 83.4465 20.6331L83.4128 20.2529H80.0078L80.05 20.7176C80.5051 25.6426 82.6374 30.1115 85.9244 32.9922V39.7927H89.2029V32.9922C92.5489 30.0524 94.6896 25.5919 95.0773 20.7091L95.1111 20.2529H91.7061Z" fill="#236967"/>
<path d="M189.798 23.2821L190.053 23.4772L190.23 23.2101L190.505 22.7974L190.658 22.5673L190.441 22.3959C189.128 21.3572 187.158 20.7 185.255 20.7C183.184 20.7 181.664 21.2497 180.659 22.1415C179.651 23.0353 179.19 24.246 179.19 25.5007C179.19 27.2546 179.93 28.3615 181.037 29.1044C182.116 29.8288 183.541 30.2039 184.902 30.5477C184.96 30.5623 185.017 30.5768 185.075 30.5913C186.399 30.9252 187.651 31.2409 188.592 31.8051C189.076 32.0953 189.465 32.4443 189.733 32.884C190.001 33.3221 190.161 33.8681 190.161 34.5708C190.161 35.5898 189.776 36.4984 188.965 37.1584C188.148 37.8237 186.868 38.2604 185.039 38.2604C182.703 38.2604 180.598 37.2387 179.575 35.9921L179.368 35.7395L179.134 35.9674L178.791 36.3015L178.598 36.489L178.763 36.7009C179.991 38.276 182.483 39.342 185.069 39.342C187.162 39.342 188.711 38.8059 189.742 37.9264C190.777 37.0437 191.261 35.8393 191.261 34.5708L191.261 34.5699C191.258 33.7164 191.075 33.0104 190.744 32.4227C190.415 31.8357 189.947 31.3827 189.401 31.0215C188.32 30.3071 186.894 29.9327 185.532 29.5853C185.491 29.5748 185.45 29.5642 185.408 29.5537C184.065 29.2115 182.794 28.8874 181.841 28.3087C181.357 28.0145 180.968 27.6613 180.699 27.2175C180.43 26.7754 180.271 26.2256 180.271 25.5203C180.271 24.4899 180.657 23.5676 181.455 22.8979C182.258 22.2241 183.508 21.7815 185.275 21.7815C186.765 21.7815 188.484 22.2752 189.798 23.2821Z" fill="#216D6B" stroke="#236967" stroke-width="0.6" stroke-miterlimit="10"/>
<path d="M209.27 23.8376L209.502 24.0664L209.711 23.8155L210.005 23.4618L210.177 23.255L209.99 23.0616C208.441 21.4577 206.239 20.7 203.902 20.7C198.682 20.7 194.749 24.7013 194.749 30.021C194.749 35.3405 198.672 39.342 203.902 39.342C206.232 39.342 208.443 38.553 209.99 36.9509L210.177 36.7575L210.005 36.5507L209.711 36.1969L209.502 35.9453L209.269 36.1755C207.757 37.6725 205.936 38.2604 203.912 38.2604C199.329 38.2604 195.859 34.6967 195.859 30.0308L195.859 30.0302C195.849 25.345 199.319 21.7815 203.912 21.7815C205.948 21.7815 207.759 22.351 209.27 23.8376Z" fill="#216D6B" stroke="#236967" stroke-width="0.6" stroke-miterlimit="10"/>
<path d="M228.405 21.0688V29.328H216.437V21.0688V20.7688H216.137H215.646H215.346V21.0688V38.9536V39.2536H215.646H216.137H216.437V38.9536V30.4193H228.405V38.9536V39.2536H228.705H229.205H229.505V38.9536V21.0688V20.7688H229.205H228.705H228.405V21.0688Z" fill="#216D6B" stroke="#236967" stroke-width="0.6" stroke-miterlimit="10"/>
<path d="M244.019 20.7C238.8 20.7 234.867 24.7013 234.867 30.021C234.867 35.3405 238.79 39.342 244.019 39.342C249.249 39.342 253.172 35.3405 253.172 30.021C253.172 24.6914 249.249 20.7 244.019 20.7ZM244.019 38.2506C239.436 38.2506 235.966 34.7349 235.966 30.021C235.966 25.3071 239.436 21.7913 244.019 21.7913C248.604 21.7913 252.082 25.3075 252.082 30.021C252.082 34.7344 248.604 38.2506 244.019 38.2506Z" fill="#216D6B" stroke="#236967" stroke-width="0.6" stroke-miterlimit="10"/>
<path d="M265.863 20.7C260.643 20.7 256.71 24.7013 256.71 30.021C256.71 35.3405 260.633 39.342 265.863 39.342C271.092 39.342 275.016 35.3405 275.016 30.021C275.016 24.6914 271.092 20.7 265.863 20.7ZM265.863 38.2506C261.279 38.2506 257.81 34.7349 257.81 30.021C257.81 25.3071 261.279 21.7913 265.863 21.7913C270.447 21.7913 273.925 25.3072 273.925 30.0204C273.916 34.7349 270.446 38.2506 265.863 38.2506Z" fill="#216D6B" stroke="#236967" stroke-width="0.6" stroke-miterlimit="10"/>
<path d="M289.138 20.7688H288.838V21.0688V38.1721H278.854H278.554V38.4721V38.9536V39.2536H278.854H289.629H289.929V38.9536V21.0688V20.7688H289.629H289.138Z" fill="#216D6B" stroke="#236967" stroke-width="0.6" stroke-miterlimit="10"/>
<path d="M137 0C120.434 0 107 13.4368 107 30.0071C107 33.4509 107.586 36.7537 108.651 39.8306C109.349 37.7699 110.507 35.8363 112.143 34.192C113.653 32.6817 117.012 29.0473 118.889 28.3345C120.885 25.2152 122.444 23.8885 126.325 20.0071C134.157 12.1736 141.911 7.23359 143.653 8.97671C145.396 10.7198 140.457 18.4756 132.626 26.3091C130.96 27.9746 129.302 29.4989 127.701 30.861C129.578 31.5737 131.334 32.6747 132.844 34.1849C134.354 35.6951 135.455 37.4594 136.167 39.3366C137.529 37.7346 139.06 36.0762 140.725 34.4107C148.557 26.5773 156.318 21.6373 158.054 23.3804C159.796 25.1235 154.857 32.8793 147.026 40.7128C143.145 44.5942 141.882 46.2103 138.757 48.2075C138.044 50.0776 134.347 53.3874 132.844 54.8906C131.214 56.5208 129.288 57.6711 127.249 58.3698C130.304 59.4213 133.585 60 136.993 60C153.566 60.0141 167 46.5773 167 30.0071C167 13.4368 153.566 0 137 0Z" fill="#236967"/>
<path d="M120.243 42.3007C120.511 42.3007 120.786 42.1949 120.991 41.9902C121.4 41.5809 121.4 40.9104 120.991 40.4941C120.589 40.0918 119.897 40.0918 119.495 40.4941C119.297 40.6917 119.185 40.9598 119.185 41.2421C119.185 41.5244 119.297 41.7926 119.495 41.9902C119.7 42.2019 119.968 42.3007 120.243 42.3007Z" fill="#236967"/>
<path d="M126.565 46.0834C126.169 45.6812 125.471 45.6812 125.069 46.0834C124.871 46.281 124.758 46.5492 124.758 46.8315C124.758 47.1138 124.871 47.3819 125.069 47.5795C125.266 47.7771 125.534 47.8901 125.817 47.8901C126.099 47.8901 126.367 47.7771 126.565 47.5795C126.762 47.3819 126.875 47.1138 126.875 46.8315C126.875 46.5492 126.769 46.281 126.565 46.0834Z" fill="#236967"/>
<path d="M117.329 45.5118C116.546 46.288 117.519 48.2782 117.837 48.871L117.886 48.9627L117.978 49.0121C118.289 49.1744 119.53 49.8096 120.483 49.8096C120.821 49.8096 121.125 49.7319 121.336 49.5202C122.077 48.7792 121.774 47.5866 120.518 46.3304C119.262 45.0813 118.07 44.7778 117.329 45.5118Z" fill="#236967"/>
</svg>

<svg width="291" height="60" fill="none" xmlns="http://www.w3.org/2000/svg"><path d="M7.139 28.186c-3.22-.752-3.667-1.774-3.667-2.754 0-1.639 1.029-2.433 3.153-2.433 1.559 0 2.933.355 4.332 1.115l.337.186.21-.321c.371-.558.59-1.25.59-1.867 0-.811-.43-1.284-1.39-1.546C9.364 20.169 8.192 20 6.65 20 1.812 20 .093 22.957.093 25.72c0 2.804 1.87 4.654 5.554 5.499 3.346.794 4.029 1.85 4.029 3.193 0 2.18-1.981 2.644-3.641 2.644-1.652 0-3.212-.456-4.889-1.428l-.337-.194-.219.321c-.37.54-.59 1.242-.59 1.876 0 .819.388 1.292 1.332 1.638 1.331.507 2.933.778 4.635.778 4.265 0 7.13-2.383 7.13-5.922-.008-3.126-1.845-4.96-5.958-5.94zM22.554 20.253h-6.406v19.54h3.304v-6.26h3.102c4.517 0 7.105-2.416 7.105-6.623 0-4.233-2.588-6.657-7.105-6.657zm-3.093 2.872h3.101c2.52 0 3.75 1.234 3.75 3.785 0 2.509-1.263 3.784-3.75 3.784h-3.101v-7.569zM35.617 31.1h6.945v-2.872h-6.945v-5.103h8.698v-2.872H32.313v19.54h12.162V36.92h-8.858V31.1zM55.432 20.405l-.126-.144h-2.613l-.126.144c-3.397 3.928-5.807 11.185-6.296 18.94l-.025.447h3.413l.017-.405c.067-1.478.21-2.923.404-4.3h7.822a59.4 59.4 0 0 1 .438 4.3l.025.397h3.38l-.025-.448c-.413-7.535-2.883-14.97-6.288-18.931zm1.964 11.818h-6.785c.75-3.463 1.888-6.412 3.389-8.777 1.533 2.408 2.671 5.356 3.396 8.777zM72.684 29.284c2.95-2.197 5.032-5.272 5.757-8.516l.117-.515h-3.53l-.077.33c-.868 3.716-3.388 6.699-6.784 8.076v-8.406h-3.304v19.54h3.304v-8.11c.598-.203 1.171-.431 1.702-.684 2.866 1.833 4.66 4.671 5.335 8.447l.06.347h3.539l-.076-.482c-.59-4.004-2.882-7.78-6.043-10.027zM91.706 20.253l-.034.38c-.396 4.224-1.761 7.502-4.062 9.766-2.368-2.256-3.767-5.542-4.163-9.766l-.034-.38h-3.405l.042.465c.455 4.925 2.587 9.393 5.874 12.274v6.8h3.279v-6.8c3.346-2.94 5.487-7.4 5.874-12.283l.034-.456h-3.405z" fill="#236967"/><path d="M189.798 23.282l.255.195.177-.267.275-.413.153-.23-.217-.171c-1.313-1.039-3.283-1.696-5.186-1.696-2.071 0-3.591.55-4.596 1.442-1.008.893-1.469 2.104-1.469 3.359 0 1.754.74 2.86 1.847 3.603 1.079.725 2.504 1.1 3.865 1.444l.173.043c1.324.334 2.576.65 3.517 1.214.484.29.873.64 1.141 1.079.268.438.428.984.428 1.687 0 1.019-.385 1.927-1.196 2.587-.817.666-2.097 1.102-3.926 1.102-2.336 0-4.441-1.021-5.464-2.268l-.207-.252-.234.227-.343.334-.193.188.165.212c1.228 1.575 3.72 2.641 6.306 2.641 2.093 0 3.642-.536 4.673-1.416 1.035-.882 1.519-2.087 1.519-3.355v-.001c-.003-.854-.186-1.56-.517-2.147-.329-.587-.797-1.04-1.343-1.402-1.081-.714-2.507-1.088-3.869-1.436l-.124-.031c-1.343-.342-2.614-.667-3.567-1.245-.484-.294-.873-.648-1.142-1.091-.269-.443-.428-.992-.428-1.698 0-1.03.386-1.952 1.184-2.622.803-.674 2.053-1.116 3.82-1.116 1.49 0 3.209.493 4.523 1.5zM209.27 23.838l.232.228.209-.25.294-.354.172-.207-.187-.193c-1.549-1.604-3.751-2.362-6.088-2.362-5.22 0-9.153 4.001-9.153 9.321 0 5.32 3.923 9.321 9.153 9.321 2.33 0 4.541-.789 6.088-2.391l.187-.194-.172-.206-.294-.354-.209-.252-.233.23c-1.512 1.498-3.333 2.085-5.357 2.085-4.583 0-8.053-3.563-8.053-8.23h0c-.01-4.685 3.46-8.248 8.053-8.248 2.036 0 3.847.569 5.358 2.056zM228.405 21.069v8.259h-11.968v-8.56h-1.091v18.486h1.091v-8.835h11.968v8.835h1.1V20.769h-1.1v.3zM244.019 20.7c-5.219 0-9.152 4.001-9.152 9.321 0 5.32 3.923 9.321 9.152 9.321 5.23 0 9.153-4.002 9.153-9.321 0-5.33-3.923-9.321-9.153-9.321zm0 17.55c-4.583 0-8.053-3.515-8.053-8.229 0-4.714 3.47-8.23 8.053-8.23 4.585 0 8.063 3.517 8.063 8.23 0 4.713-3.478 8.23-8.063 8.23zM265.863 20.7c-5.22 0-9.153 4.001-9.153 9.321 0 5.32 3.923 9.321 9.153 9.321 5.229 0 9.153-4.002 9.153-9.321 0-5.33-3.924-9.321-9.153-9.321zm0 17.55c-4.584 0-8.053-3.515-8.053-8.229 0-4.714 3.469-8.23 8.053-8.23 4.584 0 8.062 3.516 8.062 8.23-.009 4.714-3.479 8.23-8.062 8.23zM289.138 20.769h-.3V38.172h-10.284v1.082H289.929V20.769H289.138z" fill="#216D6B" stroke="#236967" stroke-width=".6" stroke-miterlimit="10"/><path d="M137 0c-16.566 0-30 13.437-30 30.007 0 3.444.586 6.747 1.651 9.824a14.609 14.609 0 0 1 3.492-5.639c1.51-1.51 4.869-5.145 6.746-5.858 1.996-3.119 3.555-4.445 7.436-8.327 7.832-7.833 15.586-12.773 17.328-11.03 1.743 1.743-3.196 9.499-11.027 17.332a83.864 83.864 0 0 1-4.925 4.552 14.544 14.544 0 0 1 8.466 8.476 83.714 83.714 0 0 1 4.558-4.926c7.832-7.834 15.593-12.774 17.329-11.03 1.742 1.742-3.197 9.498-11.028 17.332-3.881 3.881-5.144 5.497-8.269 7.495-.713 1.87-4.41 5.18-5.913 6.683a14.554 14.554 0 0 1-5.595 3.479 29.903 29.903 0 0 0 9.744 1.63C153.566 60.014 167 46.577 167 30.007S153.566 0 137 0z" fill="#236967"/><path d="M120.243 42.3c.268 0 .543-.105.748-.31.409-.41.409-1.08 0-1.496a1.078 1.078 0 0 0-1.496 0 1.055 1.055 0 0 0 0 1.496c.205.212.473.31.748.31zM126.565 46.083c-.396-.402-1.094-.402-1.496 0a1.056 1.056 0 0 0 .748 1.807 1.059 1.059 0 0 0 1.058-1.059c0-.282-.106-.55-.31-.748zM117.329 45.512c-.783.776.19 2.766.508 3.359l.049.092.092.05c.311.161 1.552.797 2.505.797.338 0 .642-.078.853-.29.741-.74.438-1.933-.818-3.19-1.256-1.249-2.448-1.552-3.189-.818z" fill="#236967"/></svg>
